X: 1
T: the Quarryman
C: Charlie Sheritt
N: Composed by Charlie Sheritt of Aberdeen, and popularised by Willie Taylor
R: jig
Z: 2015 John Chambers <jc:trillian.mit.edu>
M: 6/8
L: 1/8
K: D
A |\
"D"A2f f2e | e2d d2c |\
"G"BGB dcB | "D"A3 A2A |\
"A7"A2e e2f | gfe dcB |
[1 "A7"A2A BAG | "D"F3 F2 :|\
[2 "A7"A2{B}A B2c | "D"d3- "D7"d2 |: =c |\
"G"B2d G2B | d2B edB |\
"D"ABA F2A |
d2A f2d |\
"A7"A2g g2e | e2c c2B |\
[1 "D"A2f f2e | e2d "D7"d2 :|\
[2 "A7"A2{B}A B2c | "D"d3- d2 |]
